!!!COM:	Josquin des Prez
!!!CDT:	~1450-1521/08/27
!!!OTL@@FRE:	Se congie prens
!!!AGN:	Chanson
!!!SCT:	NJE 30.11
!!!SCA:	New Josquin Edition 30.11
!!!voices:	6
**kern	**kern	**kern	**kern	**kern	**kern
*staff6	*staff5	*staff4	*staff3	*staff2	*staff1
*Ivox	*Ivox	*Ivox	*Ivox	*Ivox	*Ivox
*I"Bassus	*I"Tenor	*I"Sextus	*I"Contratenor	*I"Quintus	*I"Superius
*I'B	*I'T	*I'Sx	*I'Ct	*I'Q	*I'S
*clefF4	*clefGv2	*clefGv2	*clefGv2	*clefGv2	*clefG2
*k[b-]	*k[b-]	*k[b-]	*k[b-]	*k[b-]	*k[b-]
*M2/1	*M2/1	*M2/1	*M2/1	*M2/1	*M2/1
*met(C|)	*met(C|)	*met(C|)	*met(C|)	*met(C|)	*met(C|)
=1-	=1-	=1-	=1-	=1-	=1-
!	!	!LO:TX:Z=6:t=Canon at the upper fifth	!	!	!
1r	0r	0r	0g	0r	0r
1G	.	.	.	.	.
=2	=2	=2	=2	=2	=2
1B-	0r	0r	1f	0r	0r
1A	.	.	1f	.	.
=3	=3	=3	=3	=3	=3
0G	1r	0r	2g\	0r	0g
.	.	.	2G/	.	.
.	1G	.	2.B-\	.	.
.	.	.	4c\	.	.
=4	=4	=4	=4	=4	=4
0r	1B-	0r	2d\	0r	1f
.	.	.	2B-\	.	.
.	1A	.	2.c\	.	1f
.	.	.	4d\	.	.
=5	=5	=5	=5	=5	=5
1r	0G	0G	2e-i\	0r	0g
.	.	.	2d\	.	.
1GG	.	.	2e-i\	.	.
.	.	.	[2d\	.	.
=6	=6	=6	=6	=6	=6
1BB-	0r	1F	4d\]	0r	1r
.	.	.	4c\	.	.
.	.	.	4d\	.	.
.	.	.	4B-\	.	.
1AA	.	1F	1c	.	1a
=7	=7	=7	=7	=7	=7
0GG	1r	0G	1B-	0d	1.b-
.	1D	.	2r	.	.
.	.	.	2G/	.	2b-\
=8	=8	=8	=8	=8	=8
0r	1F	0r	2A/	1c	1a
.	.	.	2F/	.	.
.	1E	.	1G	1c	1g
=9	=9	=9	=9	=9	=9
1r	0D	1r	1A	0d	2f/
.	.	.	.	.	2.a/
1F	.	1A	1D	.	.
.	.	.	.	.	4g/
.	.	.	.	.	4f/
.	.	.	.	.	4e/
=10	=10	=10	=10	=10	=10
1.G	0r	1.B-	2r	0r	0d
.	.	.	2d\	.	.
.	.	.	2d\	.	.
2D\	.	2B-\	2d\	.	.
=11	=11	=11	=11	=11	=11
1F	1r	1A	4c\	1r	0r
.	.	.	4A/	.	.
.	.	.	2.c\	.	.
1E	1c	1G	.	1e	.
.	.	.	4B-\	.	.
.	.	.	2G/	.	.
=12	=12	=12	=12	=12	=12
0D	1.d	0F	2A/	1.f	1r
.	.	.	2D/	.	.
.	.	.	2.F/	.	1a
.	2A/	.	.	2f\	.
.	.	.	4E/	.	.
=13	=13	=13	=13	=13	=13
0r	1c	0r	4C/	1e	2.g/
.	.	.	4D/	.	.
.	.	.	4E/	.	.
.	.	.	4F/	.	4a/
.	1B-	.	2G/	1d	2b-\
.	.	.	4D/	.	2f/
.	.	.	4E/	.	.
=14	=14	=14	=14	=14	=14
0r	0A	0r	4F/	0c	2.a/
.	.	.	4G/	.	.
.	.	.	4A/	.	.
.	.	.	4B-\	.	4g/
.	.	.	4c\	.	1e
.	.	.	4d\	.	.
.	.	.	4e\	.	.
.	.	.	4c\	.	.
=15	=15	=15	=15	=15	=15
1r	0r	0B-	2d\	0r	1d
.	.	.	2G/	.	.
1GG	.	.	2.B-\	.	1r
.	.	.	4c\	.	.
=16	=16	=16	=16	=16	=16
1.BB-	0r	1B-	1d	0r	1d
.	.	1B-	1r	.	[1f
2C/	.	.	.	.	.
=17	=17	=17	=17	=17	=17
0D	1r	1.A	1D	0f	2f/]
.	.	.	.	.	2g/
.	1F	.	[1F	.	1a
.	.	2G/	.	.	.
=18	=18	=18	=18	=18	=18
1r	1.A	0F	2F/]	1f	1r
.	.	.	2G/	.	.
1D	.	.	2A/	1f	2r
.	2B-\	.	2F/	.	2d/
=19	=19	=19	=19	=19	=19
1C	0c	1r	2G/	1.e	1e
.	.	.	4C/	.	.
.	.	.	4D/	.	.
1C	.	1G	4E/	.	1g
.	.	.	4F/	.	.
.	.	.	4G/	2d\	.
.	.	.	4E/	.	.
=20	=20	=20	=20	=20	=20
1.F	0r	1.A	4F/	0c	2.f/
.	.	.	4G/	.	.
.	.	.	4A/	.	.
.	.	.	4B-\	.	4e/
.	.	.	4c\	.	2f/
.	.	.	4d\	.	.
2E\	.	2G/	[2e\	.	[2g/
=21	=21	=21	=21	=21	=21
2C/	0r	1G	4e\]	1r	4g/]
.	.	.	4d\	.	4f/
2E\	.	.	2.c\	.	4g/
.	.	.	.	.	4e/
1D	.	1F	.	1d	1f
.	.	.	4Bni\	.	.
.	.	.	4Bni\	.	.
.	.	.	4A/	.	.
=22	=22	=22	=22	=22	=22
4C/	2r	0G	3c\V	1.e	2e/
4D\	.	.	.	.	.
.	.	.	3G/	.	.
4E\	4C/	.	.	.	2.g/
.	.	.	3c\Z	.	.
4F\	4D/	.	.	.	.
2G\	4E/	.	3.B-\V	.	.
.	4F/	.	.	.	4a/
2GG/	[2G/	.	6c\	2d\	[2b-\
.	.	.	3d\Z	.	.
=23	=23	=23	=23	=23	=23
0r	4G/]	1r	3G/V	1d	4b-\]
.	4F/	.	.	.	4a/
.	.	.	3B-\	.	.
.	2D/	.	.	.	2f/
.	.	.	3A/Z	.	.
.	1E	1G	3G/V	1c	1g
.	.	.	3E/	.	.
.	.	.	3C/Z	.	.
=24	=24	=24	=24	=24	=24
2r	2.D/	1.A	3.F/V	0d	1f
2D\	.	.	6G/	.	.
.	.	.	3A/Z	.	.
.	4E/	.	.	.	.
2D\	2F/	.	2D/	.	1r
2GG/	2G/	2G/	2d\	.	.
=25	=25	=25	=25	=25	=25
2C/	1C	1G	2e\	1r	0r
2E\	.	.	2.c\	.	.
1D	1r	1F	.	1d	.
.	.	.	4Bni\	.	.
.	.	.	4Bni\	.	.
.	.	.	4A/	.	.
=26	=26	=26	=26	=26	=26
4C/	2r	0G	2.c\	1.e	0r
4D\	.	.	.	.	.
4E\	4C/	.	.	.	.
4F\	4D/	.	4B-\	.	.
2G\	4E/	.	4G/	.	.
.	4F/	.	4A/	.	.
2GG/	4G/	.	4B-\	2d\	.
.	4A/	.	4c\	.	.
=27	=27	=27	=27	=27	=27
0r	2B-\	0r	4d\	1d	1r
.	.	.	4G/	.	.
.	2G/	.	2.g\	.	.
.	1A	.	.	1c	2r
.	.	.	4f#i\	.	.
.	.	.	4f#i\	.	2a/
.	.	.	4e\	.	.
=28	=28	=28	=28	=28	=28
1r	0G	0G	1g	0d	2b-\
.	.	.	.	.	1g
1GG	.	.	2r	.	.
.	.	.	2d\	.	4f/
.	.	.	.	.	4e/
=29	=29	=29	=29	=29	=29
1BB-	0r	1F	2.d\	0r	1d
.	.	.	4B-\	.	.
1AA	.	1F	1c	.	2r
.	.	.	.	.	2a/
=30	=30	=30	=30	=30	=30
0GG	1r	0G	1.B-	0d	1.b-
.	1D	.	.	.	.
.	.	.	2G/	.	2b-\
=31	=31	=31	=31	=31	=31
0r	1F	0r	2A/	1c	1a
.	.	.	2F/	.	.
.	1E	.	1G	1c	1g
=32	=32	=32	=32	=32	=32
1r	0D	1r	1A	0d	2f/
.	.	.	.	.	2.a/
1F	.	1A	1D	.	.
.	.	.	.	.	4g/
.	.	.	.	.	4f/
.	.	.	.	.	4e/
=33	=33	=33	=33	=33	=33
1.G	0r	1.B-	2r	0r	0d
.	.	.	2d\	.	.
.	.	.	2d\	.	.
2D\	.	2B-\	2d\	.	.
=34	=34	=34	=34	=34	=34
1F	1r	1A	4c\	1r	0r
.	.	.	4A/	.	.
.	.	.	2.c\	.	.
1E	1c	1G	.	1e	.
.	.	.	4B-\	.	.
.	.	.	2G/	.	.
=35	=35	=35	=35	=35	=35
0D	1.d	0F	2A/	1.f	1r
.	.	.	2D/	.	.
.	.	.	2.F/	.	1a
.	2A/	.	.	2f\	.
.	.	.	4E/	.	.
=36	=36	=36	=36	=36	=36
0r	1c	0r	4C/	1e	2.g/
.	.	.	4D/	.	.
.	.	.	4E/	.	.
.	.	.	4F/	.	4a/
.	1B-	.	2G/	1d	2b-\
.	.	.	4D/	.	2f/
.	.	.	4E/	.	.
=37	=37	=37	=37	=37	=37
0r	0A	0r	4F/	0c	2.a/
.	.	.	4G/	.	.
.	.	.	4A/	.	.
.	.	.	4B-\	.	8g/L
.	.	.	.	.	8f/J
.	.	.	4c\	.	1e
.	.	.	4d\	.	.
.	.	.	4e\	.	.
.	.	.	4c\	.	.
=38	=38	=38	=38	=38	=38
1r	0r	0B-	2d\	0r	0d
.	.	.	2G/	.	.
1GG	.	.	2.B-\	.	.
.	.	.	4c\	.	.
=39	=39	=39	=39	=39	=39
2.BB-/	0r	1B-	1d	0r	2r
.	.	.	.	.	2d/
4C/	.	.	.	.	.
2D\	.	1B-	1r	.	2f/
2E\	.	.	.	.	2g/
=40	=40	=40	=40	=40	=40
1.F	0r	1.A	2r	0f	0a
.	.	.	2D/	.	.
.	.	.	2.F/	.	.
2E\	.	2G/	.	.	.
.	.	.	4G/	.	.
=41	=41	=41	=41	=41	=41
1D	2r	0F	1A	1f	1r
.	2F/	.	.	.	.
1D	2A/	.	2r	1f	1d
.	2B-\	.	2F/	.	.
=42	=42	=42	=42	=42	=42
1C	0c	1r	2G/	1.e	1e
.	.	.	4C/	.	.
.	.	.	4D/	.	.
1C	.	1G	4E/	.	1g
.	.	.	4F/	.	.
.	.	.	4G/	2d\	.
.	.	.	4E/	.	.
=43	=43	=43	=43	=43	=43
1.F	0r	1.A	4F/	0c	2.f/
.	.	.	4G/	.	.
.	.	.	4A/	.	.
.	.	.	4B-\	.	4e/
.	.	.	4c\	.	2f/
.	.	.	4d\	.	.
2E\	.	2G/	[2e\	.	[2g/
=44	=44	=44	=44	=44	=44
2C/	0r	1G	4e\]	1r	4g/]
.	.	.	4d\	.	4f/
2E\	.	.	1c	.	4g/
.	.	.	.	.	4e/
1D	.	1F	.	1d	1f
.	.	.	2Bni\	.	.
=45	=45	=45	=45	=45	=45
4C/	2r	0G	3c\V	1.e	2e/
4D\	.	.	.	.	.
.	.	.	3G/	.	.
4E\	4C/	.	.	.	2.g/
.	.	.	3c\Z	.	.
4F\	4D/	.	.	.	.
2G\	4E/	.	3.B-\V	.	.
.	4F/	.	.	.	4a/
2GG/	[2G/	.	6c\	2d\	[2b-\
.	.	.	3d\Z	.	.
=46	=46	=46	=46	=46	=46
0r	4G/]	1r	3G/V	1d	4b-\]
.	4F/	.	.	.	4a/
.	.	.	3B-\	.	.
.	2D/	.	.	.	2f/
.	.	.	3A/Z	.	.
.	1E	1G	3G/V	1c	1g
.	.	.	3E/	.	.
.	.	.	3C/Z	.	.
=47	=47	=47	=47	=47	=47
2r	2.D/	1.A	3.F/V	0d	1f
2D\	.	.	6G/	.	.
.	.	.	3A/Z	.	.
.	4E/	.	.	.	.
2D\	2F/	.	2D/	.	1r
2GG/	2G/	2G/	2d\	.	.
=48	=48	=48	=48	=48	=48
2C/	1C	1G	2e\	1r	0r
2E\	.	.	2.c\	.	.
1D	1r	1F	.	1d	.
.	.	.	4Bni\	.	.
.	.	.	4Bni\	.	.
.	.	.	4A/	.	.
=49	=49	=49	=49	=49	=49
4C/	2r	0G	2.c\	1.e	0r
4D\	.	.	.	.	.
4E\	4C/	.	.	.	.
4F\	4D/	.	4B-\	.	.
2G\	4E/	.	4G/	.	.
.	4F/	.	4A/	.	.
2GG/	4G/	.	4B-\	2d\	.
.	4A/	.	4c\	.	.
=50	=50	=50	=50	=50	=50
0r	2B-\	0r	4d\	1d	0r
.	.	.	4G/	.	.
.	2G/	.	1g	.	.
.	1A	.	.	1c	.
.	.	.	2f#i\	.	.
=51	=51	=51	=51	=51	=51
1r	1G	0r	1g	0d	2r
.	.	.	.	.	2.g/
2r	1B-	.	1G	.	.
.	.	.	.	.	4a/
2G\	.	.	.	.	4b-\
.	.	.	.	.	4g/
=52	=52	=52	=52	=52	=52
2F\	2A/	0r	1r	0r	2a/
1G	2G/	.	.	.	1b-
.	1d	.	2r	.	.
4F\	.	.	[2d\	.	4a/
4E\	.	.	.	.	4g/
=53	=53	=53	=53	=53	=53
1D	2r	0r	4d\]	0a	1f
.	.	.	4e\	.	.
.	2d\	.	4f\	.	.
.	.	.	4d\	.	.
2r	2c\	.	2e\	.	1r
[2D\	[2d\	.	[2f\	.	.
=54	=54	=54	=54	=54	=54
4D\]	2d\]	0r	2f\]	1a	0r
4E\	.	.	.	.	.
4F\	4c\	.	4e\	.	.
4G\	4B-\	.	4d\	.	.
2A\	1A	.	1c	1a	.
2F\	.	.	.	.	.
=55	=55	=55	=55	=55	=55
1G	2B-\	0d	1r	1d	2r
.	2G/	.	.	.	2.d/
1D	1A	.	2r	1a	.
.	.	.	.	.	4e/
.	.	.	[2d\	.	4f/
.	.	.	.	.	4g/
=56	=56	=56	=56	=56	=56
0r	0D	1d	4d\]	1a	2a/
.	.	.	4e\	.	.
.	.	.	4f\	.	2d/
.	.	.	4g\	.	.
.	.	1d	2a\	1a	2r
.	.	.	2f\	.	2a/
=57	=57	=57	=57	=57	=57
1r	2r	1G	1g	1g	2b-\
.	2.G/	.	.	.	4g/
.	.	.	.	.	4a/
2r	.	1d	1G	1g	4b-\
.	4A/	.	.	.	4cc\
2GG/	4B-\	.	.	.	[2dd\
.	4c\	.	.	.	.
=58	=58	=58	=58	=58	=58
2.BB-/	2d\	1d	2r	0f	2dd\]
.	2B-\	.	2.d\	.	2d/
4C/	.	.	.	.	.
2.D\	1F	1d	.	.	2.f/
.	.	.	4e\	.	.
.	.	.	[2f\	.	.
4E\	.	.	.	.	4g/
=59	=59	=59	=59	=59	=59
2F\	1r	1c	2f\]	0r	2a/
2G\	.	.	2e\	.	2.b-\
1F	2r	1c	1f	.	.
.	.	.	.	.	4a/
.	2c\	.	.	.	4a/
.	.	.	.	.	4g/
=60	=60	=60	=60	=60	=60
2r	2d\	0B-	2r	0f	0b-
2B-\	2.B-\	.	2d\	.	.
2B-\	.	.	2d\	.	.
.	4c\	.	.	.	.
[2B-\	2d\	.	[2B-\	.	.
=61	=61	=61	=61	=61	=61
4B-\]	1G	0r	4B-\]	[0g	2r
4A\	.	.	4c\	.	.
4G\	.	.	2d\	.	2dd\
4F\	.	.	.	.	.
2G\	2d\	.	2G/	.	2dd\
[2B-\	2G/	.	2d\	.	[2dd\
=62	=62	=62	=62	=62	=62
4B-\]	1d	0B-	2G/	1g]	4dd\]
4A\	.	.	.	.	4cc\
4G\	.	.	2.d\	.	4b-\
4F\	.	.	.	.	4a/
1G	1r	.	.	1g	1b-
.	.	.	4c\	.	.
.	.	.	4d\	.	.
.	.	.	4e\	.	.
=63	=63	=63	=63	=63	=63
0F	1r	[0c	2f\	0a	0a
.	.	.	2F/	.	.
.	2r	.	2.A/	.	.
.	2A/	.	.	.	.
.	.	.	4B-\	.	.
=64	=64	=64	=64	=64	=64
2r	2A/	1c]	1c	0r	1r
2A\	2.F/	.	.	.	.
2A\	.	1c	1F	.	1a
.	4G/	.	.	.	.
[2F\	2A/	.	.	.	.
=65	=65	=65	=65	=65	=65
4F\]	1D	0d	0f	1r	1a
4G\	.	.	.	.	.
2A\	.	.	.	.	.
1D	1A	.	.	1f	1a
=66	=66	=66	=66	=66	=66
2r	0r	0r	0r	1.g	2.b-\
2.G\	.	.	.	.	.
.	.	.	.	.	4cc\
.	.	.	.	.	2dd\
4A\	.	.	.	.	.
2B-\	.	.	.	2f\	2dd\
=67	=67	=67	=67	=67	=67
1c	0r	1r	1r	1e	0g
1G	.	1B-	2r	1d	.
.	.	.	2d\	.	.
=68	=68	=68	=68	=68	=68
0r	2r	1.c	2e\	0c	1r
.	2.C/	.	4c\	.	.
.	.	.	4d\	.	.
.	.	.	4e\	.	1g
.	4D/	.	4f\	.	.
.	2E/	2B-\	[2g\	.	.
=69	=69	=69	=69	=69	=69
1r	1F	1A	2g\]	0r	1.cc
.	.	.	1f	.	.
1C	1C	1G	.	.	.
.	.	.	2e\	.	2b-\
=70	=70	=70	=70	=70	=70
1.D	2F/	0F	1.f	0r	2.a/
.	4D/	.	.	.	.
.	4E/	.	.	.	4g/
.	4F/	.	.	.	1f
.	4G/	.	.	.	.
2C/	[2A/	.	2e\	.	.
=71	=71	=71	=71	=71	=71
1BB-	4A/]	0r	1d	0r	1r
.	4G/	.	.	.	.
.	2.G/	.	.	.	.
1AA	.	.	1c	.	1a
.	4F#i/	.	.	.	.
.	4F#i/	.	.	.	.
.	4E/	.	.	.	.
=72	=72	=72	=72	=72	=72
1GG	0G	0G	1B-	0r	2b-\
.	.	.	.	.	1g
2r	.	.	2G/	.	.
2GG/	.	.	[2d\	.	4f/
.	.	.	.	.	4e/
=73	=73	=73	=73	=73	=73
1BB-	0r	1F	4d\]	0r	1d
.	.	.	4c\	.	.
.	.	.	4d\	.	.
.	.	.	4B-\	.	.
1AA	.	1F	1c	.	2r
.	.	.	.	.	2a/
=74	=74	=74	=74	=74	=74
0GG	1r	0G	1B-	0d	1.b-
.	2r	.	2r	.	.
.	2D/	.	2G/	.	2b-\
=75	=75	=75	=75	=75	=75
0r	1F	0r	2A/	1c	1a
.	.	.	2F/	.	.
.	1E	.	1G	1c	1g
=76	=76	=76	=76	=76	=76
1r	0D	1r	1A	0d	2f/
.	.	.	.	.	2.a/
1F	.	1A	1D	.	.
.	.	.	.	.	4g/
.	.	.	.	.	4f/
.	.	.	.	.	4e/
=77	=77	=77	=77	=77	=77
1.G	0r	1.B-	2r	0r	0d
.	.	.	2d\	.	.
.	.	.	2d\	.	.
2D\	.	2B-\	2d\	.	.
=78	=78	=78	=78	=78	=78
1F	1r	1A	4c\	1r	0r
.	.	.	4A/	.	.
.	.	.	2.c\	.	.
1E	1c	1G	.	1e	.
.	.	.	4B-\	.	.
.	.	.	2G/	.	.
=79	=79	=79	=79	=79	=79
0D	1.d	0F	2A/	1.f	1r
.	.	.	2D/	.	.
.	.	.	2.F/	.	1a
.	2A/	.	.	2f\	.
.	.	.	4E/	.	.
=80	=80	=80	=80	=80	=80
0r	1c	0r	4C/	1e	2.g/
.	.	.	4D/	.	.
.	.	.	4E/	.	.
.	.	.	4F/	.	4a/
.	1B-	.	2G/	1d	2b-\
.	.	.	4D/	.	2f/
.	.	.	4E/	.	.
=81	=81	=81	=81	=81	=81
0r	0A	0r	4F/	0c	2.a/
.	.	.	4G/	.	.
.	.	.	4A/	.	.
.	.	.	4B-\	.	4g/
.	.	.	4c\	.	1e
.	.	.	4d\	.	.
.	.	.	4e\	.	.
.	.	.	4c\	.	.
=82	=82	=82	=82	=82	=82
1r	0r	0B-	2d\	0r	0d
.	.	.	2G/	.	.
1GG	.	.	2.B-\	.	.
.	.	.	4c\	.	.
=83	=83	=83	=83	=83	=83
2.BB-/	0r	1B-	1d	0r	2r
.	.	.	.	.	2d/
4C/	.	.	.	.	.
2D\	.	1B-	1r	.	2f/
2E\	.	.	.	.	2g/
=84	=84	=84	=84	=84	=84
1.F	0r	1.A	2r	0f	0a
.	.	.	2D/	.	.
.	.	.	2F/	.	.
2E\	.	2G/	2G/	.	.
=85	=85	=85	=85	=85	=85
1D	2r	0F	1A	1f	1r
.	2F/	.	.	.	.
1D	2A/	.	2r	1f	1d
.	2B-\	.	2F/	.	.
=86	=86	=86	=86	=86	=86
1C	0c	1r	2G/	1.e	1e
.	.	.	4C/	.	.
.	.	.	4D/	.	.
1C	.	1G	4E/	.	1g
.	.	.	4F/	.	.
.	.	.	4G/	2d\	.
.	.	.	4E/	.	.
=87	=87	=87	=87	=87	=87
1.F	0r	1.A	4F/	0c	2.f/
.	.	.	4G/	.	.
.	.	.	4A/	.	.
.	.	.	4B-\	.	4e/
.	.	.	4c\	.	2f/
.	.	.	4d\	.	.
2E\	.	2G/	[2e\	.	[2g/
=88	=88	=88	=88	=88	=88
2C/	0r	1G	4e\]	1r	4g/]
.	.	.	4d\	.	4f/
2E\	.	.	1c	.	4g/
.	.	.	.	.	4e/
1D	.	1F	.	1d	1f
.	.	.	2Bni\	.	.
=89	=89	=89	=89	=89	=89
4C/	2r	0G	3c\V	1.e	2e/
4D\	.	.	.	.	.
.	.	.	3G/	.	.
4E\	4C/	.	.	.	2.g/
.	.	.	3c\Z	.	.
4F\	4D/	.	.	.	.
2G\	4E/	.	3.B-\V	.	.
.	4F/	.	.	.	4a/
2GG/	[2G/	.	6c\	2d\	[2b-\
.	.	.	3d\Z	.	.
=90	=90	=90	=90	=90	=90
0r	4G/]	1r	3G/V	1d	4b-\]
.	4F/	.	.	.	4a/
.	.	.	3B-\	.	.
.	2D/	.	.	.	2f/
.	.	.	3A/Z	.	.
.	1E	1G	3G/V	1c	1g
.	.	.	3E/	.	.
.	.	.	3C/Z	.	.
=91	=91	=91	=91	=91	=91
2r	1D	1.A	3.F/V	0d	2.f/
2D\	.	.	6G/	.	.
.	.	.	3A/Z	.	.
.	.	.	.	.	4e/
2D\	1r	.	2D/	.	2f/
2GG/	.	2G/	2d\	.	[2g/
=92	=92	=92	=92	=92	=92
2C/	0r	1G	2e\	1r	4g/]
.	.	.	.	.	4f/
2E\	.	.	1c	.	4g/
.	.	.	.	.	4e/
1D	.	1F	.	1d	1f
.	.	.	2Bni\	.	.
=93	=93	=93	=93	=93	=93
2.C/	4C/	1G	2.c\	1.e	2e/
.	4D/	.	.	.	.
.	4E/	.	.	.	2.g/
4D\	4F/	.	4B-\	.	.
4E\	2.G/	1r	4G/	.	.
4F\	.	.	4A/	.	4a/
[2G\	.	.	4B-\	2d\	[2b-\
.	4A/	.	4c\	.	.
=94	=94	=94	=94	=94	=94
2G\]	2.B-\	1G	2d\	1d	4b-\]
.	.	.	.	.	4cc\
2B-\	.	.	2G/	.	4dd\
.	4A/	.	.	.	4b-\
4A\	2.F/	1A	1r	1c	2cc\
4G\	.	.	.	.	.
4F\	.	.	.	.	[2a/
4E\	4G/	.	.	.	.
=95	=95	=95	=95	=95	=95
2D\	2A/	2F/	0r	1d	4a/]
.	.	.	.	.	4g/
2BB-/	2d\	2G/	.	.	2.g/
2C/	2c\	1A	.	1r	.
.	.	.	.	.	4f#i/
2D\	2A/	.	.	.	4f#i/
.	.	.	.	.	4e/
=96	=96	=96	=96	=96	=96
2GG/	2.B-\	[0Gl	2r	1d	[0gl
4G\	.	.	2d\	.	.
4F\	4G/	.	.	.	.
4E-i\	1G	.	2.g\	1e-i	.
4D\	.	.	.	.	.
[2C/	.	.	.	.	.
.	.	.	4f\	.	.
=97	=97	=97	=97	=97	=97
2C/]	2r	0G_	2e-i\	2c\	0g_
2BB-/	2G/	.	2d\	2d\	.
1C	2.E-i/	.	1c	1e-i	.
.	4F/	.	.	.	.
=98	=98	=98	=98	=98	=98
[0GGl	1G	0G_	[0B-l	[0dl	0g_
.	1D	.	.	.	.
=99	=99	=99	=99	=99	=99
0GG]	0Gl	0G]	0B-]	0d]	0g]
==	==	==	==	==	==
*-	*-	*-	*-	*-	*-
!!!RDF**kern: l=long note in original notation
!!!RDF**kern: i=editorial accidental
!!!ENC:	Will Watson 09/09/2011
!!!END:	2011/09/09/
!!!EED:	Jesse Rodin
!!!EEV:	2011/10/07/
!!attribution-level@Jos: 1 (secure)
!!!ONB:	Translated from MusicXML and edited on 2011/10/07/ by Craig Sapp
!!muse2ps: C^@{COM}\n@{SCT}^i2I150v95,95,95,95,95,130Q16
